X:9
T:Here We Go Gathering Nuts In May
%%score 1 { 2 | 3 }
L:1/8
Q:1/4=100
M:6/8
I:linebreak $
K:G
V:1 treble nm="Violin"
V:2 treble nm="Piano"
V:3 bass 
V:1
|:"G" GGG GBd | d2 B G3 |"D" A2 A A3 | F2 E D3 |$"G" GGG GBd | d2 B G2 G/G/ |"D" A2 A D2 D | 
w: Here we go gath- er- ing|nuts in May,|nuts in May,|nuts in May,|Here we go gath- er- ing|nuts in May, on a|cold and fros- ty|
"G" G3 G2 z :| 
w: morn- ing.|
V:2
|: [B,G]G[B,G] GBd | [Bd]2 B [B,G]3 | [FA]2 A [FA]3 | [DF]2 E [A,CD]3 |$ [B,G]G[B,G] GBd | 
[Bd]2 B [B,G]2 G/G/ | [CA]2 [CA] [A,CD]2 D | [B,G]3 [B,G]2 z :| 
V:3
|: [G,,D,G,]3 [G,,D,G,]3 | [G,,D,G,]3 [G,,D,G,]3 | [D,,A,,D,]3 [D,,A,,D,]3 | 
[D,,A,,D,]3 [F,,D,F,]3 |$ [G,,D,G,]3 [G,,D,G,]3 | [G,,D,G,]3 [G,,D,G,]3 | 
[D,,A,,D,]3 [D,,A,,D,]3 | [G,,D,G,]3 [G,,D,G,]3 :| 



